Numix-Light/16/status/indicator-keyboard-No-2.svg

<?xml version="1.0" encoding="UTF-8" standalone="no"?>
<svg
   xmlns:dc="http://purl.org/dc/elements/1.1/"
   xmlns:cc="http://creativecommons.org/ns#"
   xmlns:rdf="http://www.w3.org/1999/02/22-rdf-syntax-ns#"
   xmlns:svg="http://www.w3.org/2000/svg"
   xmlns="http://www.w3.org/2000/svg"
   xmlns:sodipodi="http://sodipodi.sourceforge.net/DTD/sodipodi-0.dtd"
   xmlns:inkscape="http://www.inkscape.org/namespaces/inkscape"
   viewBox="0 0 16 16"
   id="svg2"
   version="1.1"
   inkscape:version="0.91 r13725"
   sodipodi:docname="indicator-keyboard-No-2.svg">
  <metadata
     id="metadata14">
    <rdf:RDF>
      <cc:Work
         rdf:about="">
        <dc:format>image/svg+xml</dc:format>
        <dc:type
           rdf:resource="http://purl.org/dc/dcmitype/StillImage" />
      </cc:Work>
    </rdf:RDF>
  </metadata>
  <defs
     id="defs12" />
  <sodipodi:namedview
     pagecolor="#ffffff"
     bordercolor="#666666"
     borderopacity="1"
     objecttolerance="10"
     gridtolerance="10"
     guidetolerance="10"
     inkscape:pageopacity="0"
     inkscape:pageshadow="2"
     inkscape:window-width="459"
     inkscape:window-height="369"
     id="namedview10"
     showgrid="false"
     inkscape:zoom="14.75"
     inkscape:cx="8"
     inkscape:cy="8"
     inkscape:window-x="65"
     inkscape:window-y="24"
     inkscape:window-maximized="0"
     inkscape:current-layer="svg2" />
  <path
     style="fill:#353535;fill-opacity:1"
     d="M 1.5996094 0 C 0.71320937 2.9605947e-16 0 0.71320937 0 1.5996094 L 0 14.400391 C 2.9605947e-16 15.286791 0.71320937 16 1.5996094 16 L 14.400391 16 C 15.286791 16 16 15.286791 16 14.400391 L 16 1.5996094 C 16 0.71320937 15.286791 0 14.400391 0 L 1.5996094 0 z M 1.1914062 4.859375 L 1.6777344 4.859375 C 1.9837344 5.201375 2.3102031 5.596875 2.6582031 6.046875 C 3.0122031 6.490875 3.3573594 6.9460625 3.6933594 7.4140625 C 4.0293594 7.8760625 4.3409063 8.3294375 4.6289062 8.7734375 C 4.9229062 9.2174375 5.1636094 9.6055469 5.3496094 9.9355469 L 5.3496094 4.859375 L 5.953125 4.859375 L 5.953125 11.095703 L 5.4394531 11.095703 C 5.3254531 10.885703 5.1780469 10.639422 4.9980469 10.357422 C 4.8240469 10.075422 4.631875 9.7750312 4.421875 9.4570312 C 4.211875 9.1330312 3.9898594 8.80475 3.7558594 8.46875 C 3.5218594 8.12675 3.2886875 7.7965156 3.0546875 7.4785156 C 2.8266875 7.1545156 2.6009063 6.8503594 2.3789062 6.5683594 C 2.1629063 6.2863594 1.9689219 6.0438437 1.7949219 5.8398438 L 1.7949219 11.095703 L 1.1914062 11.095703 L 1.1914062 4.859375 z M 9.3808594 6.3359375 C 9.6928594 6.3359375 9.9783282 6.395625 10.236328 6.515625 C 10.494328 6.629625 10.716344 6.7937656 10.902344 7.0097656 C 11.094344 7.2197656 11.24175 7.4753906 11.34375 7.7753906 C 11.45175 8.0753906 11.505859 8.4074375 11.505859 8.7734375 C 11.505859 9.1394375 11.45175 9.4734375 11.34375 9.7734375 C 11.24175 10.073438 11.094344 10.327109 10.902344 10.537109 C 10.716344 10.747109 10.494328 10.913203 10.236328 11.033203 C 9.9783282 11.147203 9.6928594 11.203125 9.3808594 11.203125 C 9.0688594 11.203125 8.7833906 11.147203 8.5253906 11.033203 C 8.2673906 10.913203 8.0435625 10.747109 7.8515625 10.537109 C 7.6655625 10.327109 7.5181563 10.073438 7.4101562 9.7734375 C 7.3081563 9.4734375 7.2578125 9.1394375 7.2578125 8.7734375 C 7.2578125 8.4074375 7.3081563 8.0753906 7.4101562 7.7753906 C 7.5181562 7.4753906 7.6655625 7.2197656 7.8515625 7.0097656 C 8.0435625 6.7937656 8.2673906 6.629625 8.5253906 6.515625 C 8.7833906 6.395625 9.0688594 6.3359375 9.3808594 6.3359375 z M 9.3808594 6.8652344 C 8.9188594 6.8652344 8.5532031 7.0406719 8.2832031 7.3886719 C 8.0132031 7.7306719 7.8789063 8.1914375 7.8789062 8.7734375 C 7.8789062 9.3554375 8.0132031 9.818156 8.2832031 10.160156 C 8.5532031 10.502156 8.9188594 10.673828 9.3808594 10.673828 C 9.8428593 10.673828 10.208516 10.502156 10.478516 10.160156 C 10.748516 9.8181561 10.884766 9.3554375 10.884766 8.7734375 C 10.884766 8.1914375 10.748516 7.7306719 10.478516 7.3886719 C 10.208516 7.0406719 9.8428593 6.8652344 9.3808594 6.8652344 z M 13.480469 8.7539062 C 13.874369 8.7539062 14.170241 8.851875 14.369141 9.046875 C 14.568041 9.237975 14.667969 9.5044563 14.667969 9.8476562 C 14.667969 9.9997563 14.640537 10.14475 14.585938 10.28125 C 14.531337 10.41385 14.456881 10.543169 14.363281 10.667969 C 14.273581 10.792769 14.171687 10.912297 14.054688 11.029297 C 13.937687 11.146297 13.818166 11.263859 13.697266 11.380859 C 13.595866 11.478359 13.495937 11.578288 13.398438 11.679688 C 13.304837 11.777188 13.218625 11.877116 13.140625 11.978516 C 13.066525 12.076016 13.007737 12.172031 12.960938 12.269531 C 12.918037 12.363131 12.896484 12.457181 12.896484 12.550781 L 12.896484 12.5625 L 14.808594 12.5625 L 14.808594 12.896484 L 12.474609 12.896484 C 12.474609 12.888684 12.472683 12.874969 12.46875 12.855469 L 12.46875 12.755859 C 12.46875 12.572559 12.502059 12.402094 12.568359 12.246094 C 12.634659 12.086194 12.718912 11.937275 12.820312 11.796875 C 12.925612 11.656475 13.039263 11.525197 13.164062 11.404297 C 13.292762 11.283397 13.416203 11.165834 13.533203 11.052734 C 13.630703 10.959134 13.722794 10.869003 13.808594 10.783203 C 13.898294 10.693503 13.976669 10.603366 14.042969 10.509766 C 14.109269 10.416166 14.160219 10.316237 14.199219 10.210938 C 14.238219 10.105638 14.257812 9.9900344 14.257812 9.8652344 C 14.257812 9.5922344 14.185309 9.39825 14.037109 9.28125 C 13.892809 9.16035 13.708628 9.0996094 13.486328 9.0996094 C 13.361528 9.0996094 13.249844 9.1152844 13.152344 9.1464844 C 13.054844 9.1776844 12.970584 9.2149125 12.896484 9.2578125 C 12.826284 9.2968125 12.765544 9.3379594 12.714844 9.3808594 C 12.664144 9.4237594 12.626916 9.4570688 12.603516 9.4804688 L 12.404297 9.2167969 C 12.427697 9.1894969 12.468844 9.1503094 12.527344 9.0996094 C 12.589744 9.0450094 12.666159 8.9921062 12.755859 8.9414062 C 12.849459 8.8907063 12.955272 8.8476 13.076172 8.8125 C 13.197072 8.7735 13.332269 8.7539063 13.480469 8.7539062 z "
     id="path4" />
</svg>

<svg xmlns="http://www.w3.org/2000/svg" viewBox="0 0 16 16">
 <path d="m 1.6 0 c -0.886 0 -1.6 0.713 -1.6 1.6 l 0 12.801 c 0 0.886 0.713 1.6 1.6 1.6 l 12.801 0 c 0.886 0 1.6 -0.713 1.6 -1.6 l 0 -12.801 c 0 -0.886 -0.713 -1.6 -1.6 -1.6 l -12.801 0 z m -0.408 4.859 l 0.486 0 c 0.306 0.342 0.632 0.737 0.98 1.188 c 0.354 0.444 0.699 0.899 1.035 1.367 c 0.336 0.462 0.648 0.915 0.936 1.359 c 0.294 0.444 0.535 0.832 0.721 1.162 l 0 -5.076 l 0.604 0 l 0 6.236 l -0.514 0 c -0.114 -0.21 -0.261 -0.456 -0.441 -0.738 c -0.174 -0.282 -0.366 -0.582 -0.576 -0.9 c -0.21 -0.324 -0.432 -0.652 -0.666 -0.988 c -0.234 -0.342 -0.467 -0.672 -0.701 -0.99 c -0.228 -0.324 -0.454 -0.628 -0.676 -0.91 c -0.216 -0.282 -0.41 -0.525 -0.584 -0.729 l 0 5.256 l -0.604 0 l 0 -6.236 z m 8.189 1.477 c 0.312 0 0.597 0.06 0.855 0.18 c 0.258 0.114 0.48 0.278 0.666 0.494 c 0.192 0.21 0.339 0.466 0.441 0.766 c 0.108 0.3 0.162 0.632 0.162 0.998 c 0 0.366 -0.054 0.7 -0.162 1 c -0.102 0.3 -0.249 0.554 -0.441 0.764 c -0.186 0.21 -0.408 0.376 -0.666 0.496 c -0.258 0.114 -0.543 0.17 -0.855 0.17 c -0.312 0 -0.597 -0.056 -0.855 -0.17 c -0.258 -0.12 -0.482 -0.286 -0.674 -0.496 c -0.186 -0.21 -0.333 -0.464 -0.441 -0.764 c -0.102 -0.3 -0.152 -0.634 -0.152 -1 c 0 -0.366 0.05 -0.698 0.152 -0.998 c 0.108 -0.3 0.255 -0.556 0.441 -0.766 c 0.192 -0.216 0.416 -0.38 0.674 -0.494 c 0.258 -0.12 0.543 -0.18 0.855 -0.18 z m 0 0.529 c -0.462 0 -0.828 0.175 -1.098 0.523 c -0.27 0.342 -0.404 0.803 -0.404 1.385 c 0 0.582 0.134 1.045 0.404 1.387 c 0.27 0.342 0.636 0.514 1.098 0.514 c 0.462 0 0.828 -0.172 1.098 -0.514 c 0.27 -0.342 0.406 -0.805 0.406 -1.387 c 0 -0.582 -0.136 -1.043 -0.406 -1.385 c -0.27 -0.348 -0.636 -0.523 -1.098 -0.523 z m 4.1 1.889 c 0.394 0 0.69 0.098 0.889 0.293 c 0.199 0.191 0.299 0.458 0.299 0.801 c 0 0.152 -0.027 0.297 -0.082 0.434 c -0.055 0.133 -0.129 0.262 -0.223 0.387 c -0.09 0.125 -0.192 0.244 -0.309 0.361 c -0.117 0.117 -0.237 0.235 -0.357 0.352 c -0.101 0.098 -0.201 0.197 -0.299 0.299 c -0.094 0.098 -0.18 0.197 -0.258 0.299 c -0.074 0.097 -0.133 0.194 -0.18 0.291 c -0.043 0.094 -0.064 0.188 -0.064 0.281 l 0 0.012 l 1.912 0 l 0 0.334 l -2.334 0 c 0 -0.008 -0.002 -0.022 -0.006 -0.041 l 0 -0.1 c 0 -0.183 0.033 -0.354 0.1 -0.51 c 0.066 -0.16 0.151 -0.309 0.252 -0.449 c 0.105 -0.14 0.219 -0.272 0.344 -0.393 c 0.129 -0.121 0.252 -0.238 0.369 -0.352 c 0.098 -0.094 0.19 -0.184 0.275 -0.27 c 0.09 -0.09 0.168 -0.18 0.234 -0.273 c 0.066 -0.094 0.117 -0.194 0.156 -0.299 c 0.039 -0.105 0.059 -0.221 0.059 -0.346 c 0 -0.273 -0.073 -0.467 -0.221 -0.584 c -0.144 -0.121 -0.328 -0.182 -0.551 -0.182 c -0.125 0 -0.236 0.016 -0.334 0.047 c -0.098 0.031 -0.182 0.068 -0.256 0.111 c -0.07 0.039 -0.131 0.08 -0.182 0.123 c -0.051 0.043 -0.088 0.076 -0.111 0.1 l -0.199 -0.264 c 0.023 -0.027 0.065 -0.066 0.123 -0.117 c 0.062 -0.055 0.139 -0.108 0.229 -0.158 c 0.094 -0.051 0.199 -0.094 0.32 -0.129 c 0.121 -0.039 0.256 -0.059 0.404 -0.059 z" style="fill:#353535;fill-opacity:1"/>
</svg>
